X:177
T:Braes of Elchles, The
C:Joe Buchanan's Scottish Tome - Page 269.1
I:269 1
Z:Carl Allison
R:Jig
L:1/8
M:6/8
K:D
A | AFA d2 d | f2 e d2 A | AFA g2 g | faf e2 A |
AFA d2 d | f2 e d2 d | BGB AdF | E3 D2 :|
a/b/ | afa afd | bgb bge | afa afd | afa ecA |
afa afd | bgb bge | afd ecA | d3 f/g/ |
afa afd | bgb bge | afa afd | fdf ecA |
BGB BGB | AFA AFA | BGB Adf | e3 [Fd]2 :|

